svg/building/church_line.svg

<?xml version="1.0" encoding="UTF-8"?>
<svg width="24px" height="24px" viewBox="0 0 24 24" version="1.1" xmlns="http://www.w3.org/2000/svg" xmlns:xlink="http://www.w3.org/1999/xlink">
    <title>church_line</title>
    <g id="Icon" stroke="none" stroke-width="1" fill="none" fill-rule="evenodd">
        <g id="Building" transform="translate(-528.000000, -192.000000)">
            <g id="church_line" transform="translate(528.000000, 192.000000)">
                <path d="M24,0 L24,24 L0,24 L0,0 L24,0 Z M12.5935,23.2578 L12.5819,23.2595 L12.5109,23.295 L12.4919,23.2987 L12.4767,23.295 L12.4057,23.2595 C12.3958,23.2564 12.387,23.259 12.3821,23.2649 L12.378,23.2758 L12.3609,23.7031 L12.3659,23.7235 L12.3769,23.7357 L12.4805,23.8097 L12.4953,23.8136 L12.5071,23.8097 L12.6107,23.7357 L12.6233,23.7197 L12.6267,23.7031 L12.6096,23.2758 C12.6076,23.2657 12.601,23.2593 12.5935,23.2578 Z M12.8584,23.1453 L12.8445,23.1473 L12.6598,23.2397 L12.6499,23.2499 L12.6472,23.2611 L12.6651,23.6906 L12.6699,23.7034 L12.6784,23.7105 L12.8793,23.8032 C12.8914,23.8069 12.9022,23.803 12.9078,23.7952 L12.9118,23.7812 L12.8777,23.1665 C12.8753,23.1546 12.8674,23.147 12.8584,23.1453 Z M12.143,23.1473 C12.1332,23.1424 12.1222,23.1453 12.1156,23.1526 L12.1099,23.1665 L12.0758,23.7812 C12.0751,23.7927 12.0828,23.8019 12.0926,23.8046 L12.1083,23.8032 L12.3092,23.7105 L12.3186,23.7024 L12.3225,23.6906 L12.3404,23.2611 L12.3372,23.2485 L12.3278,23.2397 L12.143,23.1473 Z" id="MingCute" fill-rule="nonzero"></path>
                <path d="M12,2 C12.51285,2 12.9355092,2.38604429 12.9932725,2.88337975 L13,3 L13,4 L14,4 C14.5523,4 15,4.44772 15,5 C15,5.51283143 14.613973,5.93550653 14.1166239,5.9932722 L14,6 L13,6 L13,7.5 L16.6,10.2 C16.820325,10.3652875 16.9613313,10.6128031 16.9931402,10.8829908 L17,11 L17,12.4648 L19.5547,14.1679 C19.798125,14.3302125 19.9564891,14.5895297 19.9922766,14.8758447 L20,15 L20,20 C20.5523,20 21,20.4477 21,21 C21,21.51285 20.613973,21.9355092 20.1166239,21.9932725 L20,22 L4,22 C3.44772,22 3,21.5523 3,21 C3,20.48715 3.38604429,20.0644908 3.88337975,20.0067275 L4,20 L4,15 C4,14.7074 4.12793594,14.4317969 4.34629219,14.2431975 L4.4453,14.1679 L7,12.4648 L7,11 C7,10.72455 7.11345797,10.4632641 7.31051549,10.2756982 L7.4,10.2 L11,7.5 L11,6 L10,6 C9.44772,6 9,5.55228 9,5 C9,4.48716857 9.38604429,4.06449347 9.88337975,4.0067278 L10,4 L11,4 L11,3 C11,2.44772 11.4477,2 12,2 Z M12,9.25 L9,11.5 L9,13 C9,13.2926 8.87206406,13.5682031 8.65370781,13.7568025 L8.5547,13.8321 L6,15.5352 L6,20 L9,20 L9,17 C9,15.3431 10.3431,14 12,14 C13.597725,14 14.903664,15.2488774 14.9949075,16.8237227 L15,17 L15,20 L18,20 L18,15.5352 L15.4453,13.8321 C15.201875,13.6697875 15.0435109,13.4104703 15.0077234,13.1241553 L15,13 L15,11.5 L12,9.25 Z M12,16 C11.48715,16 11.0644908,16.386027 11.0067275,16.8833761 L11,17 L11,20 L13,20 L13,17 L12.9932725,16.8833761 C12.9355092,16.386027 12.51285,16 12,16 Z" id="形状" fill="#09244B"></path>
            </g>
        </g>
    </g>
</svg>

<svg xmlns="http://www.w3.org/2000/svg" width="24" height="24"><g fill="none" fill-rule="evenodd"><path d="M24 0v24H0V0h24ZM12.594 23.258l-.012.002-.071.035-.02.004-.014-.004-.071-.036c-.01-.003-.019 0-.024.006l-.004.01-.017.428.005.02.01.013.104.074.015.004.012-.004.104-.074.012-.016.004-.017-.017-.427c-.002-.01-.009-.017-.016-.018Zm.264-.113-.014.002-.184.093-.01.01-.003.011.018.43.005.012.008.008.201.092c.012.004.023 0 .029-.008l.004-.014-.034-.614c-.003-.012-.01-.02-.02-.022Zm-.715.002a.023.023 0 0 0-.027.006l-.006.014-.034.614c0 .012.007.02.017.024l.015-.002.201-.093.01-.008.003-.011.018-.43-.003-.012-.01-.01-.184-.092Z"/><path fill="#09244B" d="M12 2a1 1 0 0 1 .993.883L13 3v1h1a1 1 0 0 1 .117 1.993L14 6h-1v1.5l3.6 2.7a1 1 0 0 1 .393.683L17 11v1.465l2.555 1.703a1 1 0 0 1 .437.708L20 15v5a1 1 0 0 1 .117 1.993L20 22H4a1 1 0 0 1-.117-1.993L4 20v-5a1 1 0 0 1 .346-.757l.1-.075L7 12.465V11a1 1 0 0 1 .31-.724l.09-.076L11 7.5V6h-1a1 1 0 0 1-.117-1.993L10 4h1V3a1 1 0 0 1 1-1Zm0 7.25L9 11.5V13a1 1 0 0 1-.346.757l-.1.075L6 15.535V20h3v-3a3 3 0 0 1 5.995-.176L15 17v3h3v-4.465l-2.555-1.703a1 1 0 0 1-.437-.708L15 13v-1.5l-3-2.25ZM12 16a1 1 0 0 0-.993.883L11 17v3h2v-3l-.007-.117A1 1 0 0 0 12 16Z"/></g></svg>
